svgs/lidl_plus.svg

<svg width="192" height="192" viewBox="0 0 192 192" fill="none" xmlns="http://www.w3.org/2000/svg">
<path d="M96.1232 116.246C122.701 116.246 144.246 94.701 144.246 68.1232C144.246 41.5455 122.701 20 96.1232 20C69.5455 20 48 41.5455 48 68.1232C48 94.701 69.5455 116.246 96.1232 116.246Z" stroke="black" stroke-width="8" stroke-linecap="round" stroke-linejoin="round"/>
<path d="M60.5447 59.8717V74.3222L70.0871 74.3226" stroke="black" stroke-width="8" stroke-linecap="round" stroke-linejoin="round"/>
<path d="M125.152 59.8717V74.3222L134.694 74.3226" stroke="black" stroke-width="8" stroke-linecap="round" stroke-linejoin="round"/>
<path d="M82.4531 67.9856L87.467 72.8604" stroke="black" stroke-width="8" stroke-linecap="round" stroke-linejoin="round"/>
<path d="M83.2593 53.4969V54.4548" stroke="black" stroke-width="8" stroke-linecap="round" stroke-linejoin="round"/>
<path d="M101.998 59.8712V74.322C101.998 74.322 113.179 74.4269 113.179 67.0966C113.179 67.0966 113.726 59.8712 101.998 59.8712Z" stroke="black" stroke-width="8" stroke-linecap="round" stroke-linejoin="round"/>
<path d="M58.6453 171.972V142.016" stroke="black" stroke-width="8" stroke-linecap="round" stroke-linejoin="round"/>
<path d="M54.429 142.104L67.6725 142.105C67.6725 142.105 74.5837 141.913 74.5837 149.251V154.031C74.5837 154.031 74.3358 160.122 67.6725 160.122H60.7793" stroke="black" stroke-width="8" stroke-linecap="round" stroke-linejoin="round"/>
<path d="M86.1226 142.004V170.403C86.1226 170.403 86.3428 171.972 88.4255 171.972" stroke="black" stroke-width="8" stroke-linecap="round" stroke-linejoin="round"/>
<path d="M114.206 151.714V167.792C114.206 167.792 114.31 171.774 117.437 171.774" stroke="black" stroke-width="8" stroke-linecap="round" stroke-linejoin="round"/>
<path d="M100.752 151.439V167.842C100.752 167.842 100.814 171.496 103.811 171.496C103.811 171.496 114.213 174 114.213 167.456" stroke="black" stroke-width="8" stroke-linecap="round" stroke-linejoin="round"/>
<path d="M137.72 154.213C137.72 154.213 136.394 150.134 131.193 151.469L129.243 153.192C129.398 153.277 127.11 156.077 129.896 159.589L136.125 164.259C136.125 164.259 139.236 167.289 136.305 170.208C136.305 170.208 134.285 173.509 127.556 171.151" stroke="black" stroke-width="8" stroke-linecap="round" stroke-linejoin="round"/>
</svg>

<svg width="192" height="192" fill="none" xmlns="http://www.w3.org/2000/svg"><path d="M96.123 116.246c26.578 0 48.123-21.545 48.123-48.123C144.246 41.545 122.701 20 96.123 20 69.545 20 48 41.545 48 68.123c0 26.578 21.546 48.123 48.123 48.123Z" stroke="#000" stroke-width="8" stroke-linecap="round" stroke-linejoin="round"/><path d="M60.545 59.872v14.45h9.542M125.152 59.872v14.45h9.542M82.453 67.986l5.014 4.874M83.26 53.497v.958M101.998 59.871v14.451s11.181.105 11.181-7.225c0 0 .547-7.226-11.181-7.226ZM58.645 171.972v-29.956M54.429 142.104l13.243.001s6.912-.192 6.912 7.146v4.78s-.248 6.091-6.912 6.091H60.78M86.123 142.004v28.399s.22 1.569 2.302 1.569M114.206 151.714v16.078s.104 3.982 3.231 3.982" stroke="#000" stroke-width="8" stroke-linecap="round" stroke-linejoin="round"/><path d="M100.752 151.439v16.403s.062 3.654 3.059 3.654c0 0 10.402 2.504 10.402-4.04M137.72 154.213s-1.326-4.079-6.527-2.744l-1.95 1.723c.155.085-2.133 2.885.653 6.397l6.229 4.67s3.111 3.03.18 5.949c0 0-2.02 3.301-8.749.943" stroke="#000" stroke-width="8" stroke-linecap="round" stroke-linejoin="round"/></svg>
